static/img/kroki/f4f711914176a4a8fdd4f62992da597f.svg

<?xml version="1.0" encoding="us-ascii" standalone="no"?><svg xmlns="http://www.w3.org/2000/svg" xmlns:xlink="http://www.w3.org/1999/xlink" contentStyleType="text/css" height="951px" preserveAspectRatio="none" style="width:460px;height:951px;" version="1.1" viewBox="0 0 460 951" width="460px" zoomAndPan="magnify"><defs/><g><!--class aws_resource--><g id="elem_aws_resource"><rect codeLine="22" fill="#3D176E" height="74.0859" id="aws_resource" rx="2.5" ry="2.5" style="stroke:#000D19;stroke-width:0.5;" width="155" x="152.5" y="438.76"/><ellipse cx="167.5" cy="458.6545" fill="#ADD1B2" rx="11" ry="11" style="stroke:#181818;stroke-width:1.0;"/><path d="M170.4688,464.2952 Q169.8906,464.592 169.25,464.7327 Q168.6094,464.8889 167.9063,464.8889 Q165.4063,464.8889 164.0781,463.2483 Q162.7656,461.592 162.7656,458.467 Q162.7656,455.342 164.0781,453.6858 Q165.4063,452.0295 167.9063,452.0295 Q168.6094,452.0295 169.25,452.1858 Q169.9063,452.342 170.4688,452.6389 L170.4688,455.3577 Q169.8438,454.7795 169.25,454.5139 Q168.6563,454.2327 168.0313,454.2327 Q166.6875,454.2327 166,455.3108 Q165.3125,456.3733 165.3125,458.467 Q165.3125,460.5608 166,461.6389 Q166.6875,462.7014 168.0313,462.7014 Q168.6563,462.7014 169.25,462.4358 Q169.8438,462.1545 170.4688,461.5764 L170.4688,464.2952 Z " fill="#000000"/><text fill="#D9B8FF" font-family="Helvetica" font-size="17" lengthAdjust="spacing" textLength="113" x="186.5" y="464.5398">aws_resource</text><line style="stroke:#000D19;stroke-width:0.5;" x1="153.5" x2="306.5" y1="478.5491" y2="478.5491"/><text fill="#D9B8FF" font-family="sans-serif" font-size="14" font-weight="bold" lengthAdjust="spacing" textLength="26" x="163.5" y="500.5442">arn</text><text fill="#D9B8FF" font-family="sans-serif" font-size="14" lengthAdjust="spacing" textLength="48" x="189.5" y="500.5442">: string</text></g><!--class aws_sns_subscription--><g id="elem_aws_sns_subscription"><rect codeLine="25" fill="#3D176E" height="310.7578" id="aws_sns_subscription" rx="2.5" ry="2.5" style="stroke:#000D19;stroke-width:0.5;" width="446" x="7" y="633.84"/><ellipse cx="131.75" cy="653.7345" fill="#ADD1B2" rx="11" ry="11" style="stroke:#181818;stroke-width:1.0;"/><path d="M134.7188,659.3752 Q134.1406,659.672 133.5,659.8127 Q132.8594,659.9689 132.1563,659.9689 Q129.6563,659.9689 128.3281,658.3283 Q127.0156,656.672 127.0156,653.547 Q127.0156,650.422 128.3281,648.7658 Q129.6563,647.1095 132.1563,647.1095 Q132.8594,647.1095 133.5,647.2658 Q134.1563,647.422 134.7188,647.7189 L134.7188,650.4377 Q134.0938,649.8595 133.5,649.5939 Q132.9063,649.3127 132.2813,649.3127 Q130.9375,649.3127 130.25,650.3908 Q129.5625,651.4533 129.5625,653.547 Q129.5625,655.6408 130.25,656.7189 Q130.9375,657.7814 132.2813,657.7814 Q132.9063,657.7814 133.5,657.5158 Q134.0938,657.2345 134.7188,656.6564 L134.7188,659.3752 Z " fill="#000000"/><text fill="#D9B8FF" font-family="Helvetica" font-size="17" lengthAdjust="spacing" textLength="178" x="157.25" y="659.6198">aws_sns_subscription</text><line style="stroke:#000D19;stroke-width:0.5;" x1="8" x2="452" y1="673.6291" y2="673.6291"/><text fill="#D9B8FF" font-family="sans-serif" font-size="14" font-weight="bold" lengthAdjust="spacing" textLength="359" x="18" y="695.6242">subscription_confirmation_was_authenticated</text><text fill="#D9B8FF" font-family="sans-serif" font-size="14" lengthAdjust="spacing" textLength="65" x="377" y="695.6242">: boolean</text><text fill="#D9B8FF" font-family="sans-serif" font-size="14" font-weight="bold" lengthAdjust="spacing" textLength="221" x="18" y="721.9211">subscription_delivery_policy</text><text fill="#D9B8FF" font-family="sans-serif" font-size="14" lengthAdjust="spacing" textLength="48" x="239" y="721.9211">: string</text><text fill="#D9B8FF" font-family="sans-serif" font-size="14" font-weight="bold" lengthAdjust="spacing" textLength="298" x="18" y="748.2179">subscription_effective_delivery_policy</text><text fill="#D9B8FF" font-family="sans-serif" font-size="14" lengthAdjust="spacing" textLength="48" x="316" y="748.2179">: string</text><text fill="#D9B8FF" font-family="sans-serif" font-size="14" font-weight="bold" lengthAdjust="spacing" textLength="195" x="18" y="774.5148">subscription_filter_policy</text><text fill="#D9B8FF" font-family="sans-serif" font-size="14" lengthAdjust="spacing" textLength="48" x="213" y="774.5148">: string</text><text fill="#D9B8FF" font-family="sans-serif" font-size="14" font-weight="bold" lengthAdjust="spacing" textLength="156" x="18" y="800.8117">subscription_owner</text><text fill="#D9B8FF" font-family="sans-serif" font-size="14" lengthAdjust="spacing" textLength="48" x="174" y="800.8117">: string</text><text fill="#D9B8FF" font-family="sans-serif" font-size="14" font-weight="bold" lengthAdjust="spacing" textLength="275" x="18" y="827.1086">subscription_pending_confirmation</text><text fill="#D9B8FF" font-family="sans-serif" font-size="14" lengthAdjust="spacing" textLength="65" x="293" y="827.1086">: boolean</text><text fill="#D9B8FF" font-family="sans-serif" font-size="14" font-weight="bold" lengthAdjust="spacing" textLength="283" x="18" y="853.4054">subscription_raw_message_delivery</text><text fill="#D9B8FF" font-family="sans-serif" font-size="14" lengthAdjust="spacing" textLength="65" x="301" y="853.4054">: boolean</text><text fill="#D9B8FF" font-family="sans-serif" font-size="14" font-weight="bold" lengthAdjust="spacing" textLength="215" x="18" y="879.7023">subscription_redrive_policy</text><text fill="#D9B8FF" font-family="sans-serif" font-size="14" lengthAdjust="spacing" textLength="48" x="233" y="879.7023">: string</text><text fill="#D9B8FF" font-family="sans-serif" font-size="14" font-weight="bold" lengthAdjust="spacing" textLength="169" x="18" y="905.9992">subscription_role_arn</text><text fill="#D9B8FF" font-family="sans-serif" font-size="14" lengthAdjust="spacing" textLength="48" x="187" y="905.9992">: string</text><text fill="#D9B8FF" font-family="sans-serif" font-size="14" font-weight="bold" lengthAdjust="spacing" textLength="177" x="18" y="932.2961">subscription_topic_arn</text><text fill="#D9B8FF" font-family="sans-serif" font-size="14" lengthAdjust="spacing" textLength="48" x="195" y="932.2961">: string</text></g><!--class resource--><g id="elem_resource"><rect codeLine="37" fill="#3D176E" height="310.7578" id="resource" rx="2.5" ry="2.5" style="stroke:#000D19;stroke-width:0.5;" width="227" x="116.5" y="7"/><ellipse cx="185.25" cy="26.8945" fill="#ADD1B2" rx="11" ry="11" style="stroke:#181818;stroke-width:1.0;"/><path d="M188.2188,32.5352 Q187.6406,32.832 187,32.9727 Q186.3594,33.1289 185.6563,33.1289 Q183.1563,33.1289 181.8281,31.4883 Q180.5156,29.832 180.5156,26.707 Q180.5156,23.582 181.8281,21.9258 Q183.1563,20.2695 185.6563,20.2695 Q186.3594,20.2695 187,20.4258 Q187.6563,20.582 188.2188,20.8789 L188.2188,23.5977 Q187.5938,23.0195 187,22.7539 Q186.4063,22.4727 185.7813,22.4727 Q184.4375,22.4727 183.75,23.5508 Q183.0625,24.6133 183.0625,26.707 Q183.0625,28.8008 183.75,29.8789 Q184.4375,30.9414 185.7813,30.9414 Q186.4063,30.9414 187,30.6758 Q187.5938,30.3945 188.2188,29.8164 L188.2188,32.5352 Z " fill="#000000"/><text fill="#D9B8FF" font-family="Helvetica" font-size="17" lengthAdjust="spacing" textLength="71" x="210.75" y="32.7798">resource</text><line style="stroke:#000D19;stroke-width:0.5;" x1="117.5" x2="342.5" y1="46.7891" y2="46.7891"/><text fill="#D9B8FF" font-family="sans-serif" font-size="14" font-weight="bold" lengthAdjust="spacing" textLength="29" x="127.5" y="68.7842">age</text><text fill="#D9B8FF" font-family="sans-serif" font-size="14" lengthAdjust="spacing" textLength="66" x="156.5" y="68.7842">: duration</text><text fill="#D9B8FF" font-family="sans-serif" font-size="14" font-weight="bold" lengthAdjust="spacing" textLength="43" x="127.5" y="95.0811">atime</text><text fill="#D9B8FF" font-family="sans-serif" font-size="14" lengthAdjust="spacing" textLength="70" x="170.5" y="95.0811">: datetime</text><text fill="#D9B8FF" font-family="sans-serif" font-size="14" font-weight="bold" lengthAdjust="spacing" textLength="43" x="127.5" y="121.3779">ctime</text><text fill="#D9B8FF" font-family="sans-serif" font-size="14" lengthAdjust="spacing" textLength="70" x="170.5" y="121.3779">: datetime</text><text fill="#D9B8FF" font-family="sans-serif" font-size="14" font-weight="bold" lengthAdjust="spacing" textLength="14" x="127.5" y="147.6748">id</text><text fill="#D9B8FF" font-family="sans-serif" font-size="14" lengthAdjust="spacing" textLength="48" x="141.5" y="147.6748">: string</text><text fill="#D9B8FF" font-family="sans-serif" font-size="14" font-weight="bold" lengthAdjust="spacing" textLength="33" x="127.5" y="173.9717">kind</text><text fill="#D9B8FF" font-family="sans-serif" font-size="14" lengthAdjust="spacing" textLength="48" x="160.5" y="173.9717">: string</text><text fill="#D9B8FF" font-family="sans-serif" font-size="14" font-weight="bold" lengthAdjust="spacing" textLength="90" x="127.5" y="200.2686">last_access</text><text fill="#D9B8FF" font-family="sans-serif" font-size="14" lengthAdjust="spacing" textLength="66" x="217.5" y="200.2686">: duration</text><text fill="#D9B8FF" font-family="sans-serif" font-size="14" font-weight="bold" lengthAdjust="spacing" textLength="90" x="127.5" y="226.5654">last_update</text><text fill="#D9B8FF" font-family="sans-serif" font-size="14" lengthAdjust="spacing" textLength="66" x="217.5" y="226.5654">: duration</text><text fill="#D9B8FF" font-family="sans-serif" font-size="14" font-weight="bold" lengthAdjust="spacing" textLength="48" x="127.5" y="252.8623">mtime</text><text fill="#D9B8FF" font-family="sans-serif" font-size="14" lengthAdjust="spacing" textLength="70" x="175.5" y="252.8623">: datetime</text><text fill="#D9B8FF" font-family="sans-serif" font-size="14" font-weight="bold" lengthAdjust="spacing" textLength="43" x="127.5" y="279.1592">name</text><text fill="#D9B8FF" font-family="sans-serif" font-size="14" lengthAdjust="spacing" textLength="48" x="170.5" y="279.1592">: string</text><text fill="#D9B8FF" font-family="sans-serif" font-size="14" font-weight="bold" lengthAdjust="spacing" textLength="34" x="127.5" y="305.4561">tags</text><text fill="#D9B8FF" font-family="sans-serif" font-size="14" lengthAdjust="spacing" textLength="171" x="161.5" y="305.4561">: dictionary[string, string]</text></g><!--reverse link resource to aws_resource--><g id="link_resource_aws_resource"><path codeLine="49" d="M230,338.97 C230,376.78 230,413 230,438.51 " fill="none" id="resource-backto-aws_resource" style="stroke:#FFAF37;stroke-width:2.0;"/><polygon fill="none" points="223,339.18,230,319.18,237,339.18,223,339.18" style="stroke:#FFAF37;stroke-width:2.0;"/></g><!--reverse link aws_resource to aws_sns_subscription--><g id="link_aws_resource_aws_sns_subscription"><path codeLine="50" d="M230,534.07 C230,562.32 230,597.89 230,633.4 " fill="none" id="aws_resource-backto-aws_sns_subscription" style="stroke:#FFAF37;stroke-width:2.0;"/><polygon fill="none" points="223,534.13,230,514.13,237,534.13,223,534.13" style="stroke:#FFAF37;stroke-width:2.0;"/></g><!--SRC=[ZPDDRzim38Rl-HK2UWiQ85cnfHbswG8CswKerjs6mQ0boX5YImObrt2x_VT9TfVASZvsC62JZyZt5UcT4iYmgbt7Agno93kpUwLh8AZO7P5fjwOqnAwa17cpJfDVZ7ONWNkea7t5yWcTuf0IFtQAxpLQozv5gS_0zmMPHekXl2FGrgTGkuZQbc3jdNEayiPX94PiybifKp8jUdKZLkiFEC4C2QHNPBbSYjKcHIwsEklxG3ogPsIh-DBkZSE9p4cBdZghCX2Ho8dHV_cJ6Xz02AKBzZwAVHyqaKOQnHzt84mRQ0cbZTjOXuJ6TJLk9wvmSola-YZyxHJCmyqnQ6r6Q4r37DdBR3u7qlFvHr-0l8ZPdmYpsZzDRZcfsYcZUpmEPDnegQY2_gC5cq7ZTdxD_7Ku5A5iRao9eDE30alrXDHbjIaLxo812OXI8dUU_VyZKfN-CYvYflMZE9skKOSPZYoUCKJGPfN_4Q5uKteEHq71r2MHv4zdumabX3Erujdn8OxdN610H4Ezbn1ngXfYVbhXtSVuaPWIe_P-vyO1tyjbmBctdtJeCqqTQYMPwaWV3KFeKDX1CLHKF1m3wduEkUjNvfUtUZ3vwVTYiHZjzsoqx6_vTB7_0W00]--></g></svg>

<svg xmlns="http://www.w3.org/2000/svg" width="460" height="951" preserveAspectRatio="none" style="width:460px;height:951px"><rect width="155" height="74.086" x="152.5" y="438.76" fill="#3D176E" rx="2.5" ry="2.5" style="stroke:#000d19;stroke-width:.5"/><circle cx="167.5" cy="458.654" r="11" fill="#ADD1B2" style="stroke:#181818;stroke-width:1"/><path d="M170.469 464.295q-.578.297-1.219.438-.64.156-1.344.156-2.5 0-3.828-1.64-1.312-1.657-1.312-4.782t1.312-4.781q1.328-1.656 3.828-1.656.703 0 1.344.156.656.156 1.219.453v2.719q-.625-.579-1.219-.844-.594-.281-1.219-.281-1.344 0-2.031 1.078-.688 1.062-.688 3.156 0 2.094.688 3.172.688 1.062 2.031 1.062.625 0 1.219-.265.594-.281 1.219-.86v2.72Z"/><text x="186.5" y="464.54" fill="#D9B8FF" font-family="Helvetica" font-size="17" textLength="113">aws_resource</text><path d="M153.5 478.549h153" style="stroke:#000d19;stroke-width:.5"/><text x="163.5" y="500.544" fill="#D9B8FF" font-family="sans-serif" font-size="14" font-weight="bold" textLength="26">arn</text><text x="189.5" y="500.544" fill="#D9B8FF" font-family="sans-serif" font-size="14" textLength="48">: string</text><rect width="446" height="310.758" x="7" y="633.84" fill="#3D176E" rx="2.5" ry="2.5" style="stroke:#000d19;stroke-width:.5"/><circle cx="131.75" cy="653.735" r="11" fill="#ADD1B2" style="stroke:#181818;stroke-width:1"/><path d="M134.719 659.375q-.578.297-1.219.438-.64.156-1.344.156-2.5 0-3.828-1.64-1.312-1.657-1.312-4.782t1.312-4.781q1.328-1.656 3.828-1.656.703 0 1.344.156.656.156 1.219.453v2.719q-.625-.578-1.219-.844-.594-.281-1.219-.281-1.344 0-2.031 1.078-.688 1.062-.688 3.156 0 2.094.688 3.172.688 1.062 2.031 1.062.625 0 1.219-.265.594-.281 1.219-.86v2.72Z"/><text x="157.25" y="659.62" fill="#D9B8FF" font-family="Helvetica" font-size="17" textLength="178">aws_sns_subscription</text><path d="M8 673.629h444" style="stroke:#000d19;stroke-width:.5"/><text x="18" y="695.624" fill="#D9B8FF" font-family="sans-serif" font-size="14" font-weight="bold" textLength="359">subscription_confirmation_was_authenticated</text><text x="377" y="695.624" fill="#D9B8FF" font-family="sans-serif" font-size="14" textLength="65">: boolean</text><text x="18" y="721.921" fill="#D9B8FF" font-family="sans-serif" font-size="14" font-weight="bold" textLength="221">subscription_delivery_policy</text><text x="239" y="721.921" fill="#D9B8FF" font-family="sans-serif" font-size="14" textLength="48">: string</text><text x="18" y="748.218" fill="#D9B8FF" font-family="sans-serif" font-size="14" font-weight="bold" textLength="298">subscription_effective_delivery_policy</text><text x="316" y="748.218" fill="#D9B8FF" font-family="sans-serif" font-size="14" textLength="48">: string</text><text x="18" y="774.515" fill="#D9B8FF" font-family="sans-serif" font-size="14" font-weight="bold" textLength="195">subscription_filter_policy</text><text x="213" y="774.515" fill="#D9B8FF" font-family="sans-serif" font-size="14" textLength="48">: string</text><text x="18" y="800.812" fill="#D9B8FF" font-family="sans-serif" font-size="14" font-weight="bold" textLength="156">subscription_owner</text><text x="174" y="800.812" fill="#D9B8FF" font-family="sans-serif" font-size="14" textLength="48">: string</text><text x="18" y="827.109" fill="#D9B8FF" font-family="sans-serif" font-size="14" font-weight="bold" textLength="275">subscription_pending_confirmation</text><text x="293" y="827.109" fill="#D9B8FF" font-family="sans-serif" font-size="14" textLength="65">: boolean</text><text x="18" y="853.405" fill="#D9B8FF" font-family="sans-serif" font-size="14" font-weight="bold" textLength="283">subscription_raw_message_delivery</text><text x="301" y="853.405" fill="#D9B8FF" font-family="sans-serif" font-size="14" textLength="65">: boolean</text><text x="18" y="879.702" fill="#D9B8FF" font-family="sans-serif" font-size="14" font-weight="bold" textLength="215">subscription_redrive_policy</text><text x="233" y="879.702" fill="#D9B8FF" font-family="sans-serif" font-size="14" textLength="48">: string</text><text x="18" y="905.999" fill="#D9B8FF" font-family="sans-serif" font-size="14" font-weight="bold" textLength="169">subscription_role_arn</text><text x="187" y="905.999" fill="#D9B8FF" font-family="sans-serif" font-size="14" textLength="48">: string</text><text x="18" y="932.296" fill="#D9B8FF" font-family="sans-serif" font-size="14" font-weight="bold" textLength="177">subscription_topic_arn</text><text x="195" y="932.296" fill="#D9B8FF" font-family="sans-serif" font-size="14" textLength="48">: string</text><rect width="227" height="310.758" x="116.5" y="7" fill="#3D176E" rx="2.5" ry="2.5" style="stroke:#000d19;stroke-width:.5"/><circle cx="185.25" cy="26.895" r="11" fill="#ADD1B2" style="stroke:#181818;stroke-width:1"/><path d="M188.219 32.535q-.578.297-1.219.438-.64.156-1.344.156-2.5 0-3.828-1.64-1.312-1.657-1.312-4.782t1.312-4.781q1.328-1.656 3.828-1.656.703 0 1.344.156.656.156 1.219.453v2.719q-.625-.578-1.219-.844-.594-.281-1.219-.281-1.344 0-2.031 1.078-.688 1.062-.688 3.156 0 2.094.688 3.172.688 1.062 2.031 1.062.625 0 1.219-.265.594-.281 1.219-.86v2.72Z"/><text x="210.75" y="32.78" fill="#D9B8FF" font-family="Helvetica" font-size="17" textLength="71">resource</text><path d="M117.5 46.789h225" style="stroke:#000d19;stroke-width:.5"/><text x="127.5" y="68.784" fill="#D9B8FF" font-family="sans-serif" font-size="14" font-weight="bold" textLength="29">age</text><text x="156.5" y="68.784" fill="#D9B8FF" font-family="sans-serif" font-size="14" textLength="66">: duration</text><text x="127.5" y="95.081" fill="#D9B8FF" font-family="sans-serif" font-size="14" font-weight="bold" textLength="43">atime</text><text x="170.5" y="95.081" fill="#D9B8FF" font-family="sans-serif" font-size="14" textLength="70">: datetime</text><text x="127.5" y="121.378" fill="#D9B8FF" font-family="sans-serif" font-size="14" font-weight="bold" textLength="43">ctime</text><text x="170.5" y="121.378" fill="#D9B8FF" font-family="sans-serif" font-size="14" textLength="70">: datetime</text><text x="127.5" y="147.675" fill="#D9B8FF" font-family="sans-serif" font-size="14" font-weight="bold" textLength="14">id</text><text x="141.5" y="147.675" fill="#D9B8FF" font-family="sans-serif" font-size="14" textLength="48">: string</text><text x="127.5" y="173.972" fill="#D9B8FF" font-family="sans-serif" font-size="14" font-weight="bold" textLength="33">kind</text><text x="160.5" y="173.972" fill="#D9B8FF" font-family="sans-serif" font-size="14" textLength="48">: string</text><text x="127.5" y="200.269" fill="#D9B8FF" font-family="sans-serif" font-size="14" font-weight="bold" textLength="90">last_access</text><text x="217.5" y="200.269" fill="#D9B8FF" font-family="sans-serif" font-size="14" textLength="66">: duration</text><text x="127.5" y="226.565" fill="#D9B8FF" font-family="sans-serif" font-size="14" font-weight="bold" textLength="90">last_update</text><text x="217.5" y="226.565" fill="#D9B8FF" font-family="sans-serif" font-size="14" textLength="66">: duration</text><text x="127.5" y="252.862" fill="#D9B8FF" font-family="sans-serif" font-size="14" font-weight="bold" textLength="48">mtime</text><text x="175.5" y="252.862" fill="#D9B8FF" font-family="sans-serif" font-size="14" textLength="70">: datetime</text><text x="127.5" y="279.159" fill="#D9B8FF" font-family="sans-serif" font-size="14" font-weight="bold" textLength="43">name</text><text x="170.5" y="279.159" fill="#D9B8FF" font-family="sans-serif" font-size="14" textLength="48">: string</text><text x="127.5" y="305.456" fill="#D9B8FF" font-family="sans-serif" font-size="14" font-weight="bold" textLength="34">tags</text><text x="161.5" y="305.456" fill="#D9B8FF" font-family="sans-serif" font-size="14" textLength="171">: dictionary[string, string]</text><path fill="none" d="M230 338.97v99.54m-7-99.33 7-20 7 20h-14zm7 194.89v99.33m-7-99.27 7-20 7 20h-14z" style="stroke:#ffaf37;stroke-width:2"/></svg>
